public/assets/images/others/icon/13.svg

<svg width="50" height="50" viewBox="0 0 50 50" fill="none" xmlns="http://www.w3.org/2000/svg">
<path d="M16.3354 43.7187C16.3354 44.0963 16.0292 44.4024 15.6516 44.4024H10.3172C9.93955 44.4024 9.6334 44.0963 9.6334 43.7187C9.6334 43.341 9.93955 43.0349 10.3172 43.0349H15.6516C16.0292 43.0349 16.3354 43.341 16.3354 43.7187ZM12.9843 14.8414C9.48545 14.8414 6.18936 16.1732 3.70332 18.5915C3.43271 18.8548 3.42666 19.2877 3.68994 19.5583C3.95293 19.8289 4.38613 19.8352 4.65674 19.5717C9.24844 15.1051 16.7199 15.105 21.3118 19.5717C21.4446 19.701 21.6167 19.7653 21.7885 19.7653C21.9666 19.7653 22.1446 19.6961 22.2787 19.5583C22.542 19.2877 22.5361 18.8548 22.2653 18.5915C19.7793 16.1732 16.4833 14.8414 12.9843 14.8414ZM12.984 18.2042C10.3899 18.2042 7.94043 19.1863 6.08672 20.9695C5.81455 21.2313 5.80615 21.6642 6.06797 21.9362C6.20225 22.0759 6.38135 22.146 6.56084 22.146C6.73135 22.1459 6.90215 22.0826 7.03477 21.955C10.3159 18.7984 15.6525 18.7985 18.931 21.9548C19.2031 22.2167 19.636 22.2084 19.8978 21.9364C20.1597 21.6644 20.1515 21.2314 19.8794 20.9696C18.027 19.1862 15.5781 18.2042 12.984 18.2042ZM8.47529 23.3453C8.20049 23.6043 8.1876 24.037 8.44658 24.3118C8.58115 24.4546 8.7625 24.5267 8.94434 24.5267C9.1126 24.5267 9.28105 24.4649 9.41318 24.3405C11.4158 22.4535 14.5531 22.4533 16.5558 24.3405C16.8305 24.5994 17.2632 24.5867 17.5223 24.3118C17.7812 24.037 17.7685 23.6043 17.4936 23.3453C14.9649 20.9628 11.0036 20.9628 8.47529 23.3453ZM11.7758 26.7427C12.4646 26.1448 13.5038 26.1446 14.1929 26.7427C14.3223 26.855 14.4819 26.9102 14.6408 26.9102C14.832 26.9102 15.0223 26.8304 15.1574 26.6746C15.405 26.3895 15.3745 25.9575 15.0894 25.7101C13.8894 24.6683 12.0796 24.6683 10.8794 25.7101C10.5942 25.9575 10.5638 26.3895 10.8113 26.6746C11.0588 26.9599 11.4907 26.9902 11.7758 26.7427ZM10.5802 30.9628C10.5802 29.6653 11.6345 28.6098 12.9304 28.6098C14.2278 28.6098 15.2834 29.6653 15.2834 30.9628C15.2834 32.2603 14.2278 33.3158 12.9304 33.3158C11.6345 33.3158 10.5802 32.2603 10.5802 30.9628ZM11.9478 30.9628C11.9478 31.5062 12.3886 31.9482 12.9305 31.9482C13.4738 31.9482 13.9159 31.5063 13.9159 30.9628C13.9159 30.4193 13.4739 29.9773 12.9305 29.9773C12.3886 29.9773 11.9478 30.4194 11.9478 30.9628ZM49.9996 25.0001C49.9996 34.6317 42.1649 42.4676 32.5349 42.4676C30.2556 42.4676 28.0519 42.0372 25.9687 41.1889V44.6959C25.9687 45.9276 24.9665 46.9299 23.7348 46.9299H2.23125C1.00098 46.9299 0 45.9276 0 44.6959V5.30156C0 4.07129 1.00098 3.07031 2.23125 3.07031H23.7347C24.9664 3.07031 25.9687 4.07129 25.9687 5.30156V8.81055C28.0475 7.96279 30.2511 7.53272 32.5348 7.53272C42.1649 7.53262 49.9996 15.3686 49.9996 25.0001ZM48.6168 25.6756H42.7415C42.6848 28.268 42.3021 30.7625 41.6272 33.0141H46.4924C47.7475 30.836 48.5063 28.3381 48.6168 25.6756ZM38.6792 36.5298C39.0597 35.86 39.4026 35.1412 39.7066 34.3815H33.2187V41.0507C35.2552 40.7609 37.173 39.1818 38.6792 36.5298ZM40.1975 33.014C40.9095 30.7908 41.3142 28.2895 41.3738 25.6755H33.2187V33.014H40.1975ZM33.2187 15.6158H39.706C39.4021 14.8568 39.0594 14.1388 38.6792 13.4694C37.1732 10.8179 35.2554 9.23916 33.2187 8.94941V15.6158ZM33.2187 16.9834V24.308H41.3734C41.3125 21.6988 40.9078 19.2024 40.197 16.9834H33.2187ZM31.8511 16.9834H25.9687V24.308H31.8511V16.9834ZM25.9687 33.014H31.851V25.6755H25.9687V33.014ZM48.6162 24.308C48.5032 21.6505 47.7441 19.1575 46.4908 16.9834H41.6268C42.3004 19.2307 42.6831 21.7203 42.7412 24.308H48.6162ZM37.4828 9.67939C38.354 10.4988 39.1573 11.5424 39.8684 12.794C40.3626 13.6642 40.7971 14.6102 41.1696 15.6158H45.6068C43.6205 12.856 40.7834 10.7482 37.4828 9.67939ZM25.9687 10.2972V15.6158H31.851V8.91582C29.8013 9 27.8271 9.4626 25.9687 10.2972ZM9.88174 4.43789L10.2815 6.11807H15.6872L16.087 4.43789H9.88174ZM24.6011 5.30156C24.6011 4.82529 24.2125 4.43789 23.7347 4.43789H17.4928L16.8926 6.96016C16.8192 7.26816 16.544 7.48564 16.2273 7.48564H9.74141C9.4248 7.48564 9.14951 7.26816 9.07617 6.96016L8.47598 4.43789H2.23125C1.76309 4.43789 1.36758 4.8334 1.36758 5.30156V44.6959C1.36758 45.1737 1.75498 45.5623 2.23125 45.5623H23.7347C24.2125 45.5623 24.6011 45.1737 24.6011 44.6959V5.30156ZM25.9687 39.7026C27.8314 40.5373 29.8056 41 31.851 41.0844V34.3815H25.9687V39.7026ZM45.6089 34.3815H41.1702C40.7976 35.3878 40.3628 36.3344 39.8684 37.2051C39.1572 38.4573 38.3536 39.5013 37.482 40.321C40.7841 39.2519 43.6224 37.1431 45.6089 34.3815Z" fill="#615EFC"/>
</svg>

<svg xmlns="http://www.w3.org/2000/svg" width="50" height="50" fill="none" viewBox="0 0 50 50"><path fill="#615efc" d="M16.335 43.719a.684.684 0 0 1-.683.683h-5.335a.684.684 0 1 1 0-1.367h5.335c.377 0 .683.306.683.684m-3.35-28.878c-3.5 0-6.796 1.332-9.282 3.75a.684.684 0 0 0 .954.98c4.591-4.466 12.063-4.466 16.655 0a.68.68 0 0 0 .967-.013.684.684 0 0 0-.014-.966c-2.486-2.419-5.782-3.75-9.28-3.75m-.001 3.363a9.9 9.9 0 0 0-6.897 2.765.684.684 0 1 0 .948.986c3.28-3.157 8.618-3.156 11.896 0a.684.684 0 0 0 .948-.985 9.9 9.9 0 0 0-6.895-2.766m-4.509 5.141a.684.684 0 1 0 .938.995 5.213 5.213 0 0 1 7.143 0 .684.684 0 1 0 .938-.995 6.583 6.583 0 0 0-9.019 0m3.3 3.398a1.85 1.85 0 0 1 2.418 0 .68.68 0 0 0 .964-.068.684.684 0 0 0-.068-.965 3.226 3.226 0 0 0-4.21 0 .684.684 0 1 0 .897 1.033m-1.195 4.22a2.354 2.354 0 0 1 2.35-2.353 2.356 2.356 0 0 1 2.353 2.353 2.356 2.356 0 0 1-2.353 2.353 2.354 2.354 0 0 1-2.35-2.353m1.368 0a.985.985 0 1 0 1.97 0 .985.985 0 0 0-1.97 0M50 25c0 9.632-7.835 17.468-17.465 17.468-2.28 0-4.483-.43-6.566-1.28v3.508a2.237 2.237 0 0 1-2.234 2.234H2.23A2.235 2.235 0 0 1 0 44.696V5.302A2.234 2.234 0 0 1 2.231 3.07h21.504a2.235 2.235 0 0 1 2.234 2.232V8.81a17.3 17.3 0 0 1 6.566-1.278C42.165 7.533 50 15.369 50 25m-1.383.676h-5.875c-.057 2.592-.44 5.087-1.115 7.338h4.865a16 16 0 0 0 2.125-7.338M38.679 36.53c.38-.67.724-1.389 1.028-2.148h-6.488v6.669c2.036-.29 3.954-1.87 5.46-4.521m1.518-3.516c.712-2.223 1.117-4.725 1.177-7.339h-8.155v7.339zM33.22 15.616h6.487a18 18 0 0 0-1.027-2.147c-1.506-2.651-3.424-4.23-5.46-4.52zm0 1.367v7.325h8.154c-.06-2.61-.465-5.106-1.176-7.325zm-1.368 0H25.97v7.325h5.882zM25.97 33.014h5.882v-7.339H25.97zm22.647-8.706a16 16 0 0 0-2.125-7.325h-4.864c.673 2.248 1.056 4.737 1.114 7.325zM37.483 9.679c.871.82 1.674 1.863 2.385 3.115.495.87.93 1.816 1.302 2.822h4.437a16.17 16.17 0 0 0-8.124-5.937m-11.514.618v5.319h5.882v-6.7c-2.05.084-4.024.547-5.882 1.381M9.882 4.437l.4 1.681h5.405l.4-1.68zm14.72.865a.866.866 0 0 0-.867-.864h-6.242l-.6 2.522a.684.684 0 0 1-.666.526H9.741a.684.684 0 0 1-.665-.526l-.6-2.522H2.231a.875.875 0 0 0-.863.864v39.394c0 .478.387.866.863.866h21.504a.867.867 0 0 0 .866-.866zm1.367 34.4a15.9 15.9 0 0 0 5.882 1.382v-6.703h-5.882zm19.64-5.32H41.17a19 19 0 0 1-1.302 2.823c-.71 1.252-1.514 2.296-2.386 3.116a16.16 16.16 0 0 0 8.127-5.94"/></svg>
